Papirus/64x64/apps/godot.svg

<svg xmlns="http://www.w3.org/2000/svg" width="64" height="64" version="1">
 <g>
  <path style="fill-opacity:0.2" d="M 25,56 C 8.6551311,53.885757 7.9914091,45.470879 7.9914091,45.470879 L 8.0000001,26 4,21.950921 l 5.0000001,-6.999999 4.9999999,3 4,-4 V 8 l 8,-3 2,5 h 8 l 2,-5 8,3 v 6 l 4,4 5,-3 5,7 -4,4 -0.02005,19.470879 c 0,0 -0.500102,10.290512 -16.979954,10.529121 z"/>
  <path style="fill:#3888c3" d="M 25,55 C 8.6551314,52.885757 7.9914086,44.470879 7.9914086,44.470879 L 8,25 3.9999999,20.950921 9,13.950922 l 5,3 4,-4 V 7 l 8,-3 2,5 h 8 l 2,-5 8,3 v 6 l 4,4 5,-3 5,7 -4,4 -0.02005,19.470879 c 0,0 -0.500102,10.290512 -16.979954,10.529121 z"/>
  <circle style="fill-opacity:0.2" cx="20" cy="30" r="6"/>
  <circle style="fill:#ffffff" cx="20" cy="29" r="6"/>
  <circle style="fill:#353535" cx="20" cy="29" r="4"/>
  <circle style="fill-opacity:0.2" cx="44" cy="30" r="6"/>
  <circle style="fill:#ffffff" cx="44" cy="29" r="6"/>
  <circle style="fill:#353535" cx="44" cy="29" r="4"/>
  <g transform="matrix(2.0021957,0,0,2.0021957,-9.9464762e-4,-1.428319)">
   <path style="fill:#ffffff;fill-opacity:0.2" d="M 8.9918194,4.2097765 12.98624,2.711183 13.985144,5.2084415 h 3.99466 l 9.53e-4,0.4994517 H 13.985144 L 12.98624,3.2106347 8.9906271,4.7089898 Z"/>
   <path style="fill:#ffffff;fill-opacity:0.2" d="m 22.973129,4.2097765 -3.993468,-1.4985935 -0.999857,2.4972585 9.53e-4,0.4994517 0.998904,-2.4972585 3.995613,1.4983551 z"/>
   <path style="fill:#ffffff;fill-opacity:0.2" d="m 29.967597,11.201862 -2.497258,-3.4961622 -2.49988,1.4974016 -1.99733,-1.9973299 0.0021,0.4999284 1.997807,1.9978068 2.497303,-1.4983552 2.286999,3.1990595 z"/>
   <path style="fill:#ffffff;fill-opacity:0.2" d="M 1.9983035,11.201862 4.4944884,7.7031011 6.9928204,9.204055 8.9906271,7.2062482 V 7.7056999 L 6.9928204,9.7035067 4.495562,8.2051516 C 4.5401784,8.1854008 3.0054714,10.298812 2.2071955,11.409861 Z"/>
  </g>
  <path style="fill:none;stroke:#000000;stroke-width:4.0017;stroke-linecap:round;stroke-opacity:0.2" d="m 32.00085,30.00085 v 5.998572"/>
  <path style="fill:none;stroke:#ffffff;stroke-width:4.0007;stroke-linecap:round" d="m 32.00035,29.00035 v 5.99556"/>
  <path style="opacity:0.2;fill:none;stroke:#000000;stroke-width:2;stroke-linejoin:round" d="m 56,43.000699 h -9.000001 v 3.999999 H 37 V 42.999999 H 31.999999 M 8,43.000699 h 9 v 3.999999 h 9.999999 v -4.000699 h 5"/>
  <path style="fill:none;stroke:#ffffff;stroke-width:2;stroke-linejoin:round" d="m 56,42.000698 h -9.000001 v 4 H 37 V 41.999999 H 31.999999 M 8,42.000698 h 9 v 4 h 9.999999 v -4.000699 h 5"/>
 </g>
</svg>

<svg xmlns="http://www.w3.org/2000/svg" width="64" height="64" version="1">
 <g transform="translate(0,2)">
  <path style="opacity:0.2" d="M 25,56 C 8.6551,53.886 7.9914,45.471 7.9914,45.471 L 8,26 4,21.951 9,14.951 14,17.951 18,13.951 V 8 L 26,5 28,10 H 36 L 38,5 46,8 V 14 L 50,18 55,15 60,22 56,26 55.98,45.471 C 55.98,45.471 55.48,55.761 39,56 Z"/>
  <path style="fill:#3888c3" d="M 25,55 C 8.6551,52.886 7.9914,44.471 7.9914,44.471 L 8,25 4,20.951 9,13.951 14,16.951 18,12.951 V 7 L 26,4 28,9 H 36 L 38,4 46,7 V 13 L 50,17 55,14 60,21 56,25 55.98,44.471 C 55.98,44.471 55.48,54.761 39,55 Z"/>
  <circle style="opacity:0.2" cx="20" cy="30" r="6"/>
  <circle style="fill:#ffffff" cx="20" cy="29" r="6"/>
  <circle style="fill:#353535" cx="20" cy="29" r="4"/>
  <circle style="opacity:0.2" cx="44" cy="30" r="6"/>
  <circle style="fill:#ffffff" cx="44" cy="29" r="6"/>
  <circle style="fill:#353535" cx="44" cy="29" r="4"/>
  <path style="opacity:0.2;fill:#ffffff" d="M 4,21 8.9979,13.995 14,17 18,13 V 14 L 14,18 9.0001,15 C 9.0894,14.961 6.0166,19.192 4.4183,21.417 Z M 60.001,21 54.999,14 49.994,16.998 45.996,12.999 46,14 50,18 54.999,15 59.578,21.405 Z M 45.996,7.0006 38.001,4.0001 35.999,9 36.001,10 38.001,5 46,8.0001 Z M 18.002,7.0006 26,4.0001 28,9 H 35.999 L 36.001,10 H 28 L 26,5 18,8.0001 Z"/>
  <path style="fill:none;stroke:#000000;stroke-width:4.0017;stroke-linecap:round;stroke-opacity:0.2" d="M 32.001,30.001 V 35.999"/>
  <path style="fill:none;stroke:#ffffff;stroke-width:4.0007;stroke-linecap:round" d="M 32,29 V 34.996"/>
  <path style="opacity:0.2;fill:none;stroke:#000000;stroke-width:2;stroke-linejoin:round" d="M 56,43.001 H 47 V 47.001 H 37 V 43 H 32 M 8,43.001 H 17 V 47.001 H 27 V 43 H 32"/>
  <path style="fill:none;stroke:#ffffff;stroke-width:2;stroke-linejoin:round" d="M 56,42.001 H 47 V 46.001 H 37 V 42 H 32 M 8,42.001 H 17 V 46.001 H 27 V 42 H 32"/>
 </g>
</svg>
